svgs/duotone/lira-sign.svg

<svg xmlns="http://www.w3.org/2000/svg" viewBox="0 0 320 512"><!--! Font Awesome Pro 6.6.0 by @fontawesome - https://fontawesome.com License - https://fontawesome.com/license (Commercial License) Copyright 2024 Fonticons, Inc. --><defs><style>.fa-secondary{opacity:.4}</style></defs><path class="fa-secondary" d="M0 224c0-17.7 14.3-32 32-32l16 0 0 64-16 0c-17.7 0-32-14.3-32-32zm0 96c0-17.7 14.3-32 32-32l16 0 0 44.5c0 6.6-.7 13.1-2 19.5l-14 0c-17.7 0-32-14.3-32-32zm110.8 32c.4-3.2 .7-6.4 .9-9.7c.1-1.6 .2-3.2 .2-4.9s.1-3.3 .1-4.9l0-44.5 112 0c17.7 0 32 14.3 32 32s-14.3 32-32 32l-113.2 0zM112 192l112 0c17.7 0 32 14.3 32 32s-14.3 32-32 32l-112 0 0-64z"/><path class="fa-primary" d="M176.4 96c-35.5 0-64.4 28.8-64.4 64.4l0 172.2c0 29-7.9 57.5-22.8 82.3l-.7 1.1L288 416c17.7 0 32 14.3 32 32s-14.3 32-32 32L32 480c-11.5 0-22.2-6.2-27.8-16.2s-5.5-22.3 .4-32.2l29.8-49.6c9-14.9 13.7-32 13.7-49.4l0-172.2C48 89.5 105.5 32 176.4 32c13.8 0 27.5 2.2 40.6 6.6l81.2 27.1c16.8 5.6 25.8 23.7 20.2 40.5s-23.7 25.8-40.5 20.2L196.7 99.3c-6.6-2.2-13.4-3.3-20.4-3.3z"/></svg>

<svg xmlns="http://www.w3.org/2000/svg" viewBox="0 0 320 512"><!--! Font Awesome Pro 6.5.2 by @fontawesome - https://fontawesome.com License - https://fontawesome.com/license (Commercial License) Copyright 2024 Fonticons, Inc. --><defs><style>.fa-secondary{opacity:.4}</style></defs><path class="fa-secondary" d="M48 192v64H32c-17.7 0-32-14.3-32-32s14.3-32 32-32H48zm0 96v44.5c0 6.6-.7 13.1-2 19.5H32c-17.7 0-32-14.3-32-32s14.3-32 32-32H48zm62.8 64c.8-6.4 1.2-12.9 1.2-19.5V288H224c17.7 0 32 14.3 32 32s-14.3 32-32 32H110.8zm1.2-96V192H224c17.7 0 32 14.3 32 32s-14.3 32-32 32H112z"/><path class="fa-primary" d="M176.4 96c-35.5 0-64.4 28.8-64.4 64.4V332.5c0 29-7.9 57.5-22.8 82.3l-.7 1.1H288c17.7 0 32 14.3 32 32s-14.3 32-32 32H32c-11.5 0-22.2-6.2-27.8-16.2s-5.5-22.3 .4-32.2l29.8-49.6c9-14.9 13.7-32 13.7-49.4V160.4C48 89.5 105.5 32 176.4 32c13.8 0 27.5 2.2 40.6 6.6l81.2 27.1c16.8 5.6 25.8 23.7 20.2 40.5s-23.7 25.8-40.5 20.2L196.7 99.3c-6.6-2.2-13.4-3.3-20.4-3.3z"/></svg>
